;FLAVOR:Marlin
;TIME:1112
;Filament used: 0.442993m
;Layer height: 0.2
;MINX:89.467
;MINY:90.088
;MINZ:0.3
;MAXX:145.535
;MAXY:144.905
;MAXZ:1.15
;Generated with Cura_SteamEngine 4.4.0
M140 S60
M105
M190 S60
M104 S210
M105
M109 S210
M82 ;absolute extrusion mode
M201 X500.00 Y500.00 Z100.00 E5000.00 ;Setup machine max acceleration
M203 X500.00 Y500.00 Z10.00 E50.00 ;Setup machine max feedrate
M204 P500.00 R1000.00 T500.00 ;Setup Print/Retract/Travel acceleration
M205 X8.00 Y8.00 Z0.40 E5.00 ;Setup Jerk
M220 S100 ;Reset Feedrate
M221 S100 ;Reset Flowrate

G28 ;Home

G92 E0 ;Reset Extruder
G1 Z2.0 F3000 ;Move Z Axis up
G1 X10.1 Y20 Z0.28 F5000.0 ;Move to start position
G1 X10.1 Y200.0 Z0.28 F1500.0 E15 ;Draw the first line
G1 X10.4 Y200.0 Z0.28 F5000.0 ;Move to side a little
G1 X10.4 Y20 Z0.28 F1500.0 E30 ;Draw the second line
G92 E0 ;Reset Extruder
G1 Z2.0 F3000 ;Move Z Axis up
G92 E0
G92 E0
G1 F3000 E-7
;LAYER_COUNT:4
;LAYER:0
M107
G1 F300 Z0.55
G0 F6000 X109.264 Y97.211 Z0.55
;TYPE:SKIRT
G1 F300 Z0.3
G1 F3000 E0
G1 F1200 X109.66 Y96.768 E0.03511
G1 X109.818 Y96.598 E0.04883
G1 X110.271 Y96.131 E0.08728
G1 X110.428 Y95.975 E0.10036
G1 X110.815 Y95.606 E0.13196
G1 X110.985 Y95.451 E0.14555
G1 X111.449 Y95.043 E0.18206
G1 X111.631 Y94.889 E0.19615
G1 X112.161 Y94.461 E0.23641
G1 X112.347 Y94.317 E0.25031
G1 X112.811 Y93.973 E0.28444
G1 X113.001 Y93.839 E0.29818
G1 X113.682 Y93.376 E0.34685
G1 X114.027 Y93.159 E0.37093
G1 X114.81 Y92.705 E0.42442
G1 X115.044 Y92.576 E0.44021
G1 X115.688 Y92.242 E0.48308
G1 X115.913 Y92.131 E0.49791
G1 X116.426 Y91.893 E0.53133
G1 X116.622 Y91.807 E0.54398
G1 X117.19 Y91.569 E0.58037
G1 X117.41 Y91.482 E0.59435
G1 X117.96 Y91.278 E0.62902
G1 X118.186 Y91.2 E0.64314
G1 X118.785 Y91.006 E0.68035
G1 X119.001 Y90.94 E0.6937
G1 X119.6 Y90.772 E0.73046
G1 X119.822 Y90.715 E0.74401
G1 X120.42 Y90.573 E0.78033
G1 X120.652 Y90.523 E0.79435
G1 X121.446 Y90.369 E0.84215
G1 X121.866 Y90.304 E0.86727
G1 X123.067 Y90.163 E0.93873
G1 X123.526 Y90.128 E0.96593
G1 X124.528 Y90.092 E1.02518
G1 X124.786 Y90.088 E1.04043
G1 X125.635 Y90.096 E1.0906
G1 X126.075 Y90.118 E1.11664
G1 X127.038 Y90.202 E1.17376
G1 X127.297 Y90.23 E1.18916
G1 X127.859 Y90.305 E1.22266
G1 X128.08 Y90.339 E1.23588
G1 X128.736 Y90.453 E1.27522
G1 X128.97 Y90.499 E1.28932
G1 X129.564 Y90.628 E1.32524
G1 X129.789 Y90.681 E1.3389
G1 X130.35 Y90.827 E1.37315
G1 X130.568 Y90.889 E1.38655
G1 X131.178 Y91.074 E1.42422
G1 X131.405 Y91.148 E1.43833
G1 X131.957 Y91.341 E1.47288
G1 X132.17 Y91.42 E1.48631
G1 X132.747 Y91.648 E1.52297
G1 X132.95 Y91.733 E1.53598
G1 X133.724 Y92.074 E1.58596
G1 X134.119 Y92.266 E1.61191
G1 X134.934 Y92.703 E1.66656
G1 X135.171 Y92.838 E1.68268
G1 X135.778 Y93.202 E1.7245
G1 X135.96 Y93.316 E1.7372
G1 X136.595 Y93.73 E1.78199
G1 X136.937 Y93.971 E1.80672
G1 X137.712 Y94.562 E1.86431
G1 X137.929 Y94.736 E1.88075
G1 X138.412 Y95.143 E1.91807
G1 X138.579 Y95.29 E1.93122
G1 X139.033 Y95.704 E1.96753
G1 X139.208 Y95.871 E1.98183
G1 X139.641 Y96.301 E2.01789
G1 X139.807 Y96.472 E2.03197
G1 X140.271 Y96.973 E2.07233
G1 X140.422 Y97.142 E2.08572
G1 X140.71 Y97.479 E2.11191
G1 X140.85 Y97.65 E2.12497
G1 X141.323 Y98.249 E2.17008
G1 X141.472 Y98.446 E2.18467
G1 X141.775 Y98.866 E2.21528
G1 X141.899 Y99.045 E2.22815
G1 X142.236 Y99.552 E2.26412
G1 X142.362 Y99.75 E2.27799
G1 X142.703 Y100.312 E2.31684
G1 X142.814 Y100.504 E2.32995
G1 X143.098 Y101.016 E2.36454
G1 X143.211 Y101.231 E2.3789
G1 X143.483 Y101.775 E2.41484
G1 X143.584 Y101.988 E2.42877
G1 X143.845 Y102.569 E2.46641
G1 X143.926 Y102.758 E2.47856
G1 X144.226 Y103.496 E2.52564
G1 X144.377 Y103.913 E2.55185
G1 X144.659 Y104.799 E2.60679
G1 X144.733 Y105.053 E2.62243
G1 X144.977 Y105.964 E2.67816
G1 X145.074 Y106.391 E2.70404
G1 X145.241 Y107.285 E2.75778
G1 X145.281 Y107.529 E2.77239
G1 X145.405 Y108.401 E2.82444
G1 X145.45 Y108.837 E2.85035
G1 X145.524 Y109.989 E2.91856
G1 X145.535 Y110.433 E2.94481
G1 X145.521 Y111.443 E3.0045
G1 X145.511 Y111.723 E3.02106
G1 X145.469 Y112.388 E3.06043
G1 X145.449 Y112.621 E3.07425
G1 X145.391 Y113.175 E3.10717
G1 X145.363 Y113.399 E3.12051
G1 X145.274 Y114.013 E3.15718
G1 X145.236 Y114.246 E3.17113
G1 X145.11 Y114.918 E3.21153
G1 X145.06 Y115.152 E3.22567
G1 X144.951 Y115.623 E3.25424
G1 X144.898 Y115.836 E3.26721
G1 X144.729 Y116.456 E3.30519
G1 X144.662 Y116.682 E3.31912
G1 X144.462 Y117.312 E3.35818
G1 X144.391 Y117.523 E3.37133
G1 X144.175 Y118.121 E3.40891
G1 X144.092 Y118.337 E3.42258
G1 X143.813 Y119.021 E3.46624
G1 X143.64 Y119.402 E3.49096
G1 X143.211 Y120.266 E3.54797
G1 X143.082 Y120.512 E3.56438
G1 X142.75 Y121.106 E3.6046
G1 X142.629 Y121.312 E3.61872
G1 X142.29 Y121.863 E3.65695
G1 X142.177 Y122.04 E3.66936
G1 X141.904 Y122.449 E3.69841
G1 X141.763 Y122.65 E3.71292
G1 X141.381 Y123.172 E3.75115
G1 X141.245 Y123.351 E3.76443
G1 X140.813 Y123.895 E3.80549
G1 X140.656 Y124.083 E3.81996
G1 X140.317 Y124.474 E3.85054
G1 X140.17 Y124.638 E3.86356
G1 X139.723 Y125.115 E3.90219
G1 X139.556 Y125.285 E3.91627
G1 X139.127 Y125.706 E3.95179
G1 X138.967 Y125.858 E3.96483
G1 X138.554 Y126.233 E3.9978
G1 X138.376 Y126.388 E4.01175
G1 X137.861 Y126.818 E4.05139
G1 X137.676 Y126.966 E4.06539
G1 X137.196 Y127.334 E4.10114
G1 X137.014 Y127.468 E4.11449
G1 X136.566 Y127.784 E4.14689
G1 X136.379 Y127.91 E4.16022
G1 X135.823 Y128.27 E4.19936
G1 X135.615 Y128.398 E4.21379
G1 X135.088 Y128.708 E4.24992
G1 X134.897 Y128.816 E4.26289
G1 X134.376 Y129.096 E4.29784
G1 X134.169 Y129.202 E4.31159
G1 X133.669 Y129.445 E4.34444
G1 X133.459 Y129.542 E4.35811
G1 X132.135 Y130.12 E4.44348
G1 X132.123 Y130.125 E4.44425
G1 X129.578 Y131.229 E4.60819
G1 X127.187 Y132.35 E4.76424
G1 X124.76 Y133.57 E4.92476
G1 X122.442 Y134.82 E5.08039
G1 X120.138 Y136.147 E5.23752
G1 X117.857 Y137.55 E5.39577
G1 X115.627 Y139.008 E5.55322
G1 X113.438 Y140.531 E5.71081
G1 X111.273 Y142.129 E5.86982
G1 X110.652 Y142.615 E5.91642
G1 X110.607 Y142.65 E5.91979
G1 X110.028 Y143.094 E5.96291
G1 X109.901 Y143.189 E5.97228
G1 X109.731 Y143.312 E5.98468
G1 X109.465 Y143.493 E6.0037
G1 X109.07 Y143.746 E6.03142
G1 X108.481 Y144.076 E6.07132
G1 X108.08 Y144.252 E6.09719
G1 X107.629 Y144.429 E6.12582
G1 X106.987 Y144.637 E6.16571
G1 X106.582 Y144.728 E6.19024
G1 X106.132 Y144.811 E6.21728
G1 X105.463 Y144.893 E6.25711
G1 X105.088 Y144.905 E6.27928
G1 X104.595 Y144.904 E6.30841
G1 X103.922 Y144.863 E6.34826
G1 X103.416 Y144.778 E6.37858
G1 X102.921 Y144.672 E6.40849
G1 X102.271 Y144.492 E6.44835
G1 X101.855 Y144.331 E6.47471
G1 X101.399 Y144.134 E6.50407
G1 X100.797 Y143.831 E6.54389
G1 X100.344 Y143.537 E6.57581
G1 X99.918 Y143.232 E6.60677
G1 X99.207 Y142.629 E6.66186
G1 X99.004 Y142.426 E6.67883
G1 X98.47 Y141.811 E6.72696
G1 X98.209 Y141.462 E6.75271
G1 X97.916 Y141.03 E6.78356
G1 X97.781 Y140.81 E6.79881
G1 X97.726 Y140.717 E6.8052
G1 X96.794 Y139.131 E6.91391
G1 X95.378 Y136.847 E7.07271
G1 X93.909 Y134.62 E7.23037
G1 X91.638 Y131.424 E7.46206
G1 X91.449 Y131.167 E7.48092
G1 X91.236 Y130.858 E7.50309
G1 X90.958 Y130.423 E7.5336
G1 X90.581 Y129.732 E7.58012
G1 X90.358 Y129.246 E7.61172
G1 X90.209 Y128.889 E7.63458
G1 X90.048 Y128.464 E7.66144
G1 X89.877 Y127.936 E7.69423
G1 X89.793 Y127.626 E7.71321
G1 X89.67 Y127.059 E7.7475
G1 X89.574 Y126.474 E7.78253
G1 X89.518 Y126.021 E7.80951
G1 X89.479 Y125.548 E7.83755
G1 X89.467 Y124.798 E7.88188
G1 X89.494 Y124.253 E7.91413
G1 X89.533 Y123.811 E7.94035
G1 X89.578 Y123.46 E7.96126
G1 X89.645 Y123.056 E7.98546
G1 X89.719 Y122.69 E8.00753
G1 X89.801 Y122.342 E8.02866
G1 X89.891 Y122.007 E8.04915
G1 X90.009 Y121.623 E8.07289
G1 X90.155 Y121.201 E8.09928
G1 X90.451 Y120.499 E8.1443
G1 X90.692 Y120.021 E8.17594
G1 X90.905 Y119.637 E8.20189
G1 X92.572 Y116.882 E8.39218
G1 X94.494 Y113.49 E8.62257
G1 X95.136 Y112.3 E8.70248
G1 X95.491 Y111.727 E8.74231
G1 X95.911 Y111.199 E8.78218
G1 X96.303 Y110.804 E8.81506
G1 X96.644 Y110.492 E8.84238
G1 X96.722 Y110.422 E8.84857
G1 X98.1 Y109.207 E8.95714
G1 X100.058 Y107.379 E9.11543
G1 X101.934 Y105.526 E9.27126
G1 X103.8 Y103.577 E9.43071
G1 X105.573 Y101.613 E9.58707
G1 X107.334 Y99.552 E9.74727
G1 X107.629 Y99.189 E9.77491
G1 X107.651 Y99.161 E9.77702
G1 X108.966 Y97.565 E9.89922
G0 F1080 X109.114 Y97.385
G0 X109.264 Y97.211
G0 F6000 X109.607 Y97.517
G1 F1200 X110.003 Y97.074 E9.93434
G1 X110.148 Y96.919 E9.94688
G1 X110.601 Y96.452 E9.98533
G1 X110.746 Y96.308 E9.9974
G1 X111.133 Y95.939 E10.029
G1 X111.288 Y95.796 E10.04147
G1 X111.752 Y95.388 E10.07798
G1 X111.92 Y95.247 E10.09094
G1 X112.45 Y94.819 E10.1312
G1 X112.621 Y94.687 E10.14396
G1 X113.085 Y94.343 E10.1781
G1 X113.259 Y94.219 E10.19072
G1 X113.94 Y93.756 E10.23939
G1 X114.258 Y93.557 E10.26156
G1 X115.041 Y93.103 E10.31504
G1 X115.256 Y92.984 E10.32956
G1 X115.9 Y92.65 E10.37243
G1 X116.107 Y92.549 E10.38605
G1 X116.62 Y92.311 E10.41947
G1 X116.8 Y92.231 E10.43111
G1 X117.368 Y91.993 E10.4675
G1 X117.57 Y91.913 E10.48034
G1 X118.12 Y91.709 E10.515
G1 X118.328 Y91.637 E10.52801
G1 X118.927 Y91.443 E10.56522
G1 X119.126 Y91.383 E10.5775
G1 X119.725 Y91.215 E10.61427
G1 X119.929 Y91.162 E10.62672
G1 X120.527 Y91.02 E10.66304
G1 X120.739 Y90.975 E10.67585
G1 X121.533 Y90.821 E10.72365
G1 X121.919 Y90.761 E10.74673
G1 X123.12 Y90.62 E10.81819
G1 X123.542 Y90.587 E10.84321
G1 X124.544 Y90.551 E10.90246
G1 X124.781 Y90.548 E10.91646
G1 X125.63 Y90.556 E10.96664
G1 X126.035 Y90.576 E10.9906
G1 X126.998 Y90.66 E11.04772
G1 X127.236 Y90.686 E11.06187
G1 X127.798 Y90.761 E11.09538
G1 X128.001 Y90.792 E11.10751
G1 X128.657 Y90.906 E11.14686
G1 X128.872 Y90.948 E11.15981
G1 X129.466 Y91.077 E11.19573
G1 X129.673 Y91.127 E11.20831
G1 X130.234 Y91.273 E11.24257
G1 X130.435 Y91.329 E11.2549
G1 X131.045 Y91.514 E11.29257
G1 X131.253 Y91.582 E11.3055
G1 X131.805 Y91.775 E11.34006
G1 X132.001 Y91.848 E11.35242
G1 X132.578 Y92.076 E11.38908
G1 X132.765 Y92.154 E11.40105
G1 X133.539 Y92.495 E11.45104
G1 X133.901 Y92.672 E11.47485
G1 X134.716 Y93.109 E11.5295
G1 X134.935 Y93.233 E11.54437
G1 X135.542 Y93.597 E11.5862
G1 X135.708 Y93.701 E11.59777
G1 X136.343 Y94.115 E11.64257
G1 X136.658 Y94.337 E11.66534
G1 X137.433 Y94.928 E11.72294
G1 X137.632 Y95.088 E11.73803
G1 X138.115 Y95.495 E11.77535
G1 X138.269 Y95.63 E11.78745
G1 X138.723 Y96.044 E11.82376
G1 X138.884 Y96.197 E11.83689
G1 X139.317 Y96.627 E11.87295
G1 X139.469 Y96.784 E11.88586
G1 X139.933 Y97.285 E11.92622
G1 X140.072 Y97.441 E11.93856
G1 X140.36 Y97.778 E11.96476
G1 X140.489 Y97.935 E11.97677
G1 X140.962 Y98.534 E12.02187
G1 X141.098 Y98.715 E12.03525
G1 X141.401 Y99.135 E12.06586
G1 X141.516 Y99.3 E12.07774
G1 X141.853 Y99.807 E12.11372
G1 X141.968 Y99.989 E12.12644
G1 X142.309 Y100.551 E12.16529
G1 X142.412 Y100.727 E12.17734
G1 X142.696 Y101.239 E12.21194
G1 X142.8 Y101.437 E12.22515
G1 X143.072 Y101.981 E12.2611
G1 X143.165 Y102.177 E12.27392
G1 X143.426 Y102.758 E12.31156
G1 X143.5 Y102.931 E12.32268
G1 X143.8 Y103.669 E12.36975
G1 X143.939 Y104.053 E12.39389
G1 X144.221 Y104.939 E12.44883
G1 X144.289 Y105.172 E12.46318
G1 X144.533 Y106.083 E12.51891
G1 X144.622 Y106.476 E12.54272
G1 X144.789 Y107.37 E12.59647
G1 X144.826 Y107.594 E12.60988
G1 X144.95 Y108.466 E12.66193
G1 X144.991 Y108.867 E12.68575
G1 X145.065 Y110.019 E12.75397
G1 X145.075 Y110.426 E12.77803
G1 X145.061 Y111.436 E12.83772
G1 X145.052 Y111.694 E12.85298
G1 X145.01 Y112.359 E12.89235
G1 X144.992 Y112.574 E12.9051
G1 X144.934 Y113.128 E12.93802
G1 X144.908 Y113.333 E12.95023
G1 X144.819 Y113.947 E12.9869
G1 X144.783 Y114.161 E12.99972
G1 X144.657 Y114.833 E13.04012
G1 X144.612 Y115.048 E13.0531
G1 X144.503 Y115.519 E13.08167
G1 X144.454 Y115.715 E13.09361
G1 X144.285 Y116.335 E13.13159
G1 X144.224 Y116.542 E13.14434
G1 X144.024 Y117.172 E13.1834
G1 X143.958 Y117.367 E13.19557
G1 X143.742 Y117.965 E13.23314
G1 X143.666 Y118.163 E13.24567
G1 X143.387 Y118.847 E13.28933
G1 X143.228 Y119.198 E13.3121
G1 X142.799 Y120.062 E13.36911
G1 X142.68 Y120.288 E13.3842
G1 X142.348 Y120.882 E13.42441
G1 X142.237 Y121.071 E13.43737
G1 X141.898 Y121.622 E13.4756
G1 X141.794 Y121.785 E13.48702
G1 X141.521 Y122.194 E13.51608
G1 X141.392 Y122.379 E13.52941
G1 X141.01 Y122.901 E13.56763
G1 X140.885 Y123.064 E13.57977
G1 X140.453 Y123.608 E13.62082
G1 X140.309 Y123.782 E13.63417
G1 X139.97 Y124.173 E13.66475
G1 X139.834 Y124.323 E13.67672
G1 X139.387 Y124.8 E13.71535
G1 X139.234 Y124.957 E13.7283
G1 X138.805 Y125.378 E13.76382
G1 X138.658 Y125.517 E13.77578
G1 X138.245 Y125.892 E13.80875
G1 X138.081 Y126.035 E13.8216
G1 X137.566 Y126.465 E13.86125
G1 X137.396 Y126.601 E13.87412
G1 X136.916 Y126.969 E13.90986
G1 X136.749 Y127.092 E13.92212
G1 X136.301 Y127.408 E13.95451
G1 X136.129 Y127.524 E13.96677
G1 X135.573 Y127.884 E14.00592
G1 X135.382 Y128.002 E14.01918
G1 X134.855 Y128.312 E14.05532
G1 X134.679 Y128.411 E14.06725
G1 X134.158 Y128.691 E14.1022
G1 X133.968 Y128.788 E14.11481
G1 X133.468 Y129.031 E14.14766
G1 X133.274 Y129.12 E14.16027
G1 X131.95 Y129.698 E14.24565
G1 X131.94 Y129.703 E14.24631
G1 X129.406 Y130.803 E14.40955
G1 X126.962 Y131.948 E14.56905
G1 X124.555 Y133.158 E14.72825
G1 X122.242 Y134.406 E14.88356
G1 X119.874 Y135.77 E15.04506
G1 X117.628 Y137.15 E15.20083
G1 X115.36 Y138.634 E15.361
G1 X113.174 Y140.155 E15.51838
G1 X111.004 Y141.756 E15.67774
G1 X110.369 Y142.253 E15.72539
G1 X110.328 Y142.285 E15.72846
G1 X109.749 Y142.729 E15.77158
G1 X109.632 Y142.816 E15.7802
G1 X109.462 Y142.939 E15.7926
G1 X109.217 Y143.106 E15.81012
G1 X108.822 Y143.359 E15.83784
G1 X108.257 Y143.673 E15.87604
G1 X107.912 Y143.823 E15.89827
G1 X107.461 Y144 E15.9269
G1 X106.845 Y144.199 E15.96516
G1 X106.499 Y144.275 E15.98609
G1 X106.049 Y144.358 E16.01313
G1 X105.089 Y144.445 E16.0701
G1 X104.596 Y144.444 E16.09923
G1 X103.951 Y144.403 E16.13742
G1 X103.512 Y144.328 E16.16374
G1 X103.017 Y144.222 E16.19366
G1 X102.394 Y144.048 E16.23188
G1 X102.038 Y143.909 E16.25447
G1 X101.582 Y143.712 E16.28382
G1 X101.005 Y143.42 E16.32204
G1 X100.611 Y143.163 E16.34983
G1 X100.185 Y142.858 E16.3808
G1 X99.532 Y142.304 E16.4314
G1 X99.329 Y142.101 E16.44837
G1 X98.839 Y141.535 E16.49261
G1 X98.578 Y141.186 E16.51836
G1 X98.308 Y140.789 E16.54673
G1 X98.173 Y140.569 E16.56199
G1 X98.122 Y140.484 E16.56785
G1 X97.168 Y138.861 E16.6791
G1 X95.765 Y136.598 E16.83645
G1 X94.3 Y134.375 E16.99378
G1 X92.029 Y131.181 E17.22537
G1 X91.819 Y130.895 E17.24634
G1 X91.624 Y130.61 E17.26675
G1 X91.346 Y130.175 E17.29726
G1 X91 Y129.54 E17.33999
G1 X90.777 Y129.054 E17.37159
G1 X90.639 Y128.726 E17.39262
G1 X90.478 Y128.301 E17.41947
G1 X90.321 Y127.816 E17.4496
G1 X90.237 Y127.506 E17.46858
G1 X90.124 Y126.985 E17.50008
G1 X90.028 Y126.4 E17.53512
G1 X89.977 Y125.983 E17.55994
G1 X89.938 Y125.51 E17.58799
G1 X89.926 Y124.821 E17.62871
G1 X89.953 Y124.276 E17.66096
G1 X89.989 Y123.87 E17.68505
G1 X90.034 Y123.519 E17.70596
G1 X90.096 Y123.148 E17.72819
G1 X90.17 Y122.782 E17.75025
G1 X90.245 Y122.461 E17.76973
G1 X90.335 Y122.126 E17.79023
G1 X90.443 Y121.773 E17.81205
G1 X90.589 Y121.351 E17.83844
G1 X90.862 Y120.706 E17.87982
G1 X91.103 Y120.228 E17.91146
G1 X91.298 Y119.875 E17.93529
G1 X92.993 Y117.074 E18.12876
G1 X94.888 Y113.728 E18.356
G1 X95.541 Y112.519 E18.43721
G1 X95.883 Y111.97 E18.47543
G1 X96.289 Y111.467 E18.51363
G1 X96.614 Y111.143 E18.54075
G1 X96.955 Y110.831 E18.56806
G1 X97.026 Y110.767 E18.57371
G1 X98.411 Y109.546 E18.68282
G1 X100.37 Y107.717 E18.8412
G1 X102.264 Y105.846 E18.99853
G1 X104.131 Y103.895 E19.15811
G1 X105.938 Y101.894 E19.31744
G1 X107.67 Y99.867 E19.475
G1 X107.986 Y99.479 E19.50457
G1 X108.006 Y99.454 E19.50646
G1 X109.31 Y97.871 E19.62766
G0 F1080 X109.469 Y97.678
G0 X109.607 Y97.517
G1 F3000 E12.62766
G1 F300 Z0.55
;MESH:4c9ab88a-7c8c-4fd8-a3f7-d3f8eb0e698a.stl
G0 F6000 X136.063 Y119.652 Z0.55
;TYPE:WALL-INNER
G1 F300 Z0.3
G1 F3000 E19.62766
G1 F1200 X135.699 Y120.091 E19.66136
G1 X135.298 Y120.536 E19.69676
G1 X134.899 Y120.945 E19.73053
G1 X134.477 Y121.344 E19.76485
G1 X134.048 Y121.718 E19.79848
G1 X133.573 Y122.097 E19.83439
G1 X133.127 Y122.426 E19.86714
G1 X132.625 Y122.764 E19.9029
